icons/community-fill.svg

<svg xmlns="http://www.w3.org/2000/svg" width="24" height="24" fill="none"><g clip-path="url(#a)"><g><path fill="#121212" d="M9 19H12V12.942L8 9.454L4 12.942V19H7V15H9V19ZM21 21H3C2.73478 21 2.48043 20.8946 2.29289 20.7071C2.10536 20.5196 2 20.2652 2 20V12.487C1.99998 12.3441 2.03059 12.2029 2.08976 12.0728C2.14892 11.9428 2.23528 11.8269 2.343 11.733L6 8.544V4C6 3.73478 6.10536 3.48043 6.29289 3.29289C6.48043 3.10536 6.73478 3 7 3H21C21.2652 3 21.5196 3.10536 21.7071 3.29289C21.8946 3.48043 22 3.73478 22 4V20C22 20.2652 21.8946 20.5196 21.7071 20.7071C21.5196 20.8946 21.2652 21 21 21ZM16 11V13H18V11H16ZM16 15V17H18V15H16ZM16 7V9H18V7H16ZM12 7V9H14V7H12Z"/></g></g><defs><clipPath id="a"><rect width="24" height="24" fill="white"/></clipPath></defs></svg>

<svg width="24" height="24" fill="none" xmlns="http://www.w3.org/2000/svg"><g clip-path="url(#a)"><path d="M9 19h3v-6.058L8 9.454l-4 3.488V19h3v-4h2v4Zm12 2H3a1 1 0 0 1-1-1v-7.513a1 1 0 0 1 .343-.754L6 8.544V4a1 1 0 0 1 1-1h14a1 1 0 0 1 1 1v16a1 1 0 0 1-1 1Zm-5-10v2h2v-2h-2Zm0 4v2h2v-2h-2Zm0-8v2h2V7h-2Zm-4 0v2h2V7h-2Z" /></g><defs><clipPath id="a"><path fill="#fff" d="M0 0h24v24H0z"/></clipPath></defs></svg>
